!!!OTL: Rekrutenlied  (161), S. 350
!!!id: T0333
**kern
*clefG2
*k[]
*G:
{16g
=1
16g
4g
8g
8g
4b
8g
8b
=2
4dd
4dd
4dd}
=3
{4dd
=4
8ee
8cc
8cc
8cc
4cc
8cc
8ee
=5
4dd
4b
4b}
=6
{4b
=7
8.dd
16a
8a
8a
4a
8b
8cc
=8
8.dd
16g
8g
8g
4g}
=9
{8g
8g
=10
8ee
8ee
8ee
8ee
8ee
8dd
8cc
8b
=11
4dd
8dd
8dd
8dd
8cc}
=12
{8b
8a
=13
8.g
16g
8.g
16g
4g
4r
=14
8.ee
16ee
8ee
8ee
4dd
8b
8dd
=15
4dd
4cc
4b}
4r
==
*-
!!!minrhy: 16
!!!meters: 4/4 ]  ZZ[5
!!!cut1: Rekrutenlied  (161), S. 350
!!!cut2: Melodie I
!!!reg: Luxemburg
!!!trd: Singendes Volk, Esch-Alzette 1937, posth.
!!!rhy1:   X__X_X_X__X_X_  X__X__X__   (x2)
!!!rhy2: X__  X_X_X_X_X__X_X_  X__X__X__
!!!key: T0333  16  G 4/4 ]  ZZ[5
!!!mod: SECHSTONSKALA DUR ?]  AMBITUS[6
!!!kad: 53143
!!!akz: 1355_6453_5251_6655_116553_
!!!fot: 'a__b__c__d__e__
!!!for: 'a__b__c__d__e__
!!!fok: '/__\__Md_^a_-__
!! PHRAS[VORWIEGEND AUFTAKTIG]
!!!fkt: historische, Kriegs- und Soldatenlieder, Abschiedslied, Trauer
!!!bem: Rammeldingen, J.P. Gloden, 26.12.1932
!! THILL, Mathias:
!! PR[51] 2K[2] 2G[5] 3K[2] 3G[5] 4A[5] 4Ü[0] 5A[3] 6K[0] 6G[0]
!! 7K[0] 7G[0] 8A[0] MEHR[0] SI[20] ABS[65] SR[6] SP[14]
!! ST[11] 2k[6] 2g[15] 3k[2] 3g[3] 4d[2] 4ü[0] 5d[2] 6k[0] 6g[0]
!! 7k[0] 7g[0] 8d[0] mehr[0] si[29] dm[-9] sr[22] sp[8]
!! 1F[4] 2F[60] 3F[31] 4F[0] LF[0] 2P[4] 3P[0] 4P[0] TRI[0] DF[4] AB[67]
!! TF[0] U3K[0] U3[0] U4[0] U4Ü[0] U5[0] U6K[0] U6[0] U7K[0] U7[0]
!! N1[17] N2K[0] N2[9] N3K[0] N3[14] N4[26] N4Ü[0] N5[18] N6K[0] N6[17]
!!!n7k: 0] N7[0] O1[0] O2K[0] O2[0] O3K[0] O3[0] HÖ[0
